X: 14877
T: Garryowen
R: jig
M: 6/8
K: Dmajor
(d/2c/2)|:(BA)G (FE)D|F3/2G/2F F2 (d/2c/2)|(BA)G (FE)D|(E3/2F/2) E E2 (d/2c/2)|
(BA)G (FE)D|F3/2G/2F F z A|(AB)c (dc)F|1 F E3 z (d/2c/2):|2 F E3 z (F/2G/2)||
|:A2 F A2 d|A2 F A2 d|B2 G B2 d|B2 G B2 c|
d2 e f2 e|d2 B A2 F|(AB)c (dA)F|F E2 z2 z:|

